X: 2
T: Non Dimenticar  2
T: T'ho voluto bene
T: Don't Forget
C: music: P. Gino Redi (aka Luigi Pulci)
C: words: Michele Galdieri
O: Italy
Z: 2013 John Chambers <jc:trillian.mit.edu>
F: http://www.wikifonia.org/node/6262
M: C
L: 1/8
K: C
[|\
"C"cdec d3B | ABcA "(A7)"B2G2 | "Dm"A4 "G7"G4- | "Dm"G4 FAce |
"G7"d4- d4- | d4 [1 "G7"FGAB | "C"A4- "A7"A4-  | "Dm"A4 "G7"z4 :|
[2 "G7"d4  FGBd | "C"c8- | "C7"c4 cBc^c | "Gm7"d4 G^FGA |
"C7"_B4 cdec | "F"d4 A4- | A4 d^cd^d | "Am7"e4 A^GAB |
"D7"c3B cdec | "Dm7"e4 d4- | "G7"d4 z4 [| "C"cdec d3c |
ABcA B3G | "Dm7"A4 "G7"G4- | "Dm"G4 FAce | "G7"d4 "Dm7"edcA |
"G7"d4 | edcd | "C"c8- | c4 z4 |]
